X:1
T:Title
%%score ( 1 2 3 ) { 4 | 5 }
L:1/8
Q:1/4=110
M:4/4
K:Eb
V:1 treble nm="Grand Piano, Soprano"
V:2 treble 
V:3 treble 
V:4 bass nm="Choir Pad, Castroville	, 10.10 D"
V:5 bass 
V:1
 [EB]4 [DG]2 [DF]2 | E2 E2 [EF]2 [EG]2 | B4 z4 | [EG]4 [FG]2 [EG]2 | [Ge]2 [Ge]2 [_Gd]2 [DB]2 | %5
w: By~T.~Hewlett,~before~1922 * *|||||
 G4 z4 | [DG]4 [GB]2 [GB]2 | [GB]2 [FA]2 [FA]2 [EG]2 | F2 [Fc]2 B4 | [Be]4 e3 e | %10
w: |||||
 [Ae]2 [Ec]2 [EB]2 [E=A]2 | [EB]2 [DF]2 E4- | E4 z4 |] %13
w: |||
V:2
 x8 | x8 | E2 z A [EG]4 | x8 | x8 | D2 z G [D_G]4 | x8 | x8 | x8 | z4 G2 G2 | x8 | x8 | x8 |] %13
V:3
 x8 | x8 | z2 D2 z4 | x8 | x8 | z2 C2 z4 | x8 | x8 | x8 | x8 | x8 | x8 | x8 |] %13
V:4
 G,4 B,2 A,2 | G,2 B,2 C2 B,2 | C2 B,2 B,4 | B,4 =B,2 C2 | C2 B,2 =A,2 B,2 | B,2 G,2 =A,4 | %6
 B,4[K:treble] D2 _D2 | C2 C2 D2 E2 | E2 D2 E4 | E4 _D2 D2 | C2[K:bass] A,2 G,2 _G,2 | %11
 G,2 A,2 G,4- | G,4 z4 |] %13
V:5
 E,4 B,,2 B,,2 | C,2 G,2 A,2 G,2 | F,2 B,,2 E,4 | E,4 D,2 C,2 | C,2 C,2 D,2 G,2 | E,2 E,2 D,4 | %6
 G,4 G,2 F,2 | E,2 F,2 B,,2 B,2 | =A,2 _A,2 G,4 | G,4 E,2 E,2 | A,2 A,,2 B,,2 C,2 | %11
 B,,2 B,,2 E,4- | E,4 z4 |] %13

